icons/Timei.svg

<svg width="16" height="16" viewBox="0 0 16 16" fill="currentColor" xmlns="http://www.w3.org/2000/svg">
<g clip-path="url(#clip0_4_1166)">
<path d="M13.4575 7.94072H12.9568" stroke="#3D3D3D" stroke-width="0.65" stroke-linecap="round" stroke-linejoin="round"/>
<path d="M2.49521 7.95148H2.99056" stroke="#3D3D3D" stroke-width="0.65" stroke-linecap="round" stroke-linejoin="round"/>
<path d="M4.12125 4.05078L4.48173 4.44892" stroke="#3D3D3D" stroke-width="0.65" stroke-linecap="round" stroke-linejoin="round"/>
<path d="M11.9173 4.06155L11.5192 4.42203" stroke="#3D3D3D" stroke-width="0.65" stroke-linecap="round" stroke-linejoin="round"/>
<path d="M7.99252 13.4663V12.9713" stroke="#3D3D3D" stroke-width="0.65" stroke-linecap="round" stroke-linejoin="round"/>
<path d="M7.99252 3.01241V2.51743" stroke="#3D3D3D" stroke-width="0.65" stroke-linecap="round" stroke-linejoin="round"/>
<path d="M11.8958 11.8576L11.5353 11.4595" stroke="#3D3D3D" stroke-width="0.65" stroke-linecap="round" stroke-linejoin="round"/>
<path d="M4.06741 11.8737L4.42789 11.4809" stroke="#3D3D3D" stroke-width="0.65" stroke-linecap="round" stroke-linejoin="round"/>
<path d="M8.00867 4.77715V7.99455" stroke="#3D3D3D" stroke-width="0.65" stroke-linecap="round" stroke-linejoin="round"/>
<path d="M8.02481 8.00531H11.1746" stroke="#3D3D3D" stroke-width="0.65" stroke-linecap="round" stroke-linejoin="round"/>
<path d="M13.2637 2.89404C14.4819 4.07081 15.2107 5.66374 15.3043 7.35428C15.4333 8.79894 15.1303 10.2494 14.4338 11.5218C13.7373 12.7943 12.6786 13.8317 11.3917 14.5025C10.1048 15.1733 8.64762 15.4474 7.20472 15.2901C5.76182 15.1328 4.39808 14.5512 3.2862 13.6189C2.17432 12.6866 1.36431 11.4456 0.958744 10.0529C0.553181 8.66032 0.570308 7.17875 1.00796 5.79586C1.4456 4.41297 2.28408 3.19096 3.41722 2.28457C4.55036 1.37819 5.92718 0.828202 7.37333 0.704262C8.93053 0.539471 10.4967 0.919792 11.8046 1.78032" stroke="#3D3D3D" stroke-width="0.75" stroke-linecap="round" stroke-linejoin="round"/>
</g>
<defs>
<clipPath id="clip0_4_1166">
<rect width="16" height="16" fill="white"/>
</clipPath>
</defs>
</svg>

<svg xmlns="http://www.w3.org/2000/svg" width="16" height="16" fill="currentColor" class="si si-Timei" viewBox="0 0 16 16">
  <g stroke="#3D3D3D" stroke-linecap="round" stroke-linejoin="round" clip-path="url(#a)">
    <path stroke-width=".65" d="M13.458 7.94h-.501m-10.462.011h.496m1.13-3.901.36.399m7.436-.387-.398.36m-3.526 9.044v-.495m0-9.959v-.495m3.903 9.341-.36-.399m-7.469.415.36-.393m3.582-6.704v3.218m.016.01h3.15"/>
    <path stroke-width=".75" d="M13.264 2.894a6.72 6.72 0 0 1 2.04 4.46 7.32 7.32 0 0 1-3.912 7.148 7.338 7.338 0 0 1-10.433-4.45 7.32 7.32 0 0 1 2.458-7.767A7.34 7.34 0 0 1 7.373.705a6.77 6.77 0 0 1 4.432 1.075"/>
  </g>
  <defs>
    <clipPath id="a">
      <path d="M0 0h16v16H0z"/>
    </clipPath>
  </defs>
</svg>
